icons/id-badge-16.svg

<svg xmlns="http://www.w3.org/2000/svg" width="16" height="16" viewBox="0 0 16 16">
  <defs/>
  <path d="M3,7.5 A0.5 0.5 0 0 1 3.5,7 L5.5,7 A0.5 0.5 0 0 1 6,7.5 L6,10.5 A0.5 0.5 0 0 1 5.5,11 L3.5,11 A0.5 0.5 0 0 1 3,10.5 L3,7.5 Z M13,7.75 A0.75 0.75 0 0 1 12.25,8.5 L7.75,8.5 A0.75 0.75 0 0 1 7.75,7 L12.25,7 A0.75 0.75 0 0 1 13,7.75 Z M10.25,11 A0.75 0.75 0 0 0 10.25,9.5 L7.75,9.5 A0.75 0.75 0 0 0 7.75,11 L10.25,11 Z"/>
  <path d="M7.25,0 L8.75,0 C9.716,0 10.5,0.784 10.5,1.75 L10.5,3 L14.25,3 C15.216,3 16,3.784 16,4.75 L16,13.25 C16,14.216 15.216,15 14.25,15 L1.75,15 C0.784,15 0,14.216 0,13.25 L0,4.75 C0,3.784 0.784,3 1.75,3 L5.5,3 L5.5,1.75 C5.5,0.784 6.284,0 7.25,0 Z M10.482,4.5 C10.358,5.361 9.62,6 8.75,6 L7.25,6 C6.38,6 5.642,5.361 5.518,4.5 L1.75,4.5 C1.612,4.5 1.5,4.612 1.5,4.75 L1.5,13.25 C1.5,13.388 1.612,13.5 1.75,13.5 L14.25,13.5 C14.388,13.5 14.5,13.388 14.5,13.25 L14.5,4.75 C14.5,4.612 14.388,4.5 14.25,4.5 Z M7,1.75 L7,4.25 C7,4.388 7.112,4.5 7.25,4.5 L8.75,4.5 C8.888,4.5 9,4.388 9,4.25 L9,1.75 C9,1.612 8.888,1.5 8.75,1.5 L7.25,1.5 C7.112,1.5 7,1.612 7,1.75 Z"/>
</svg>

<svg xmlns="http://www.w3.org/2000/svg" width="16" height="16" viewBox="0 0 16 16"><path d="M3 7.5a.5.5 0 01.5-.5h2a.5.5 0 01.5.5v3a.5.5 0 01-.5.5h-2a.5.5 0 01-.5-.5v-3zm10 .25a.75.75 0 01-.75.75h-4.5a.75.75 0 010-1.5h4.5a.75.75 0 01.75.75zM10.25 11a.75.75 0 000-1.5h-2.5a.75.75 0 000 1.5h2.5z"/><path d="M7.25 0h1.5c.966 0 1.75.784 1.75 1.75V3h3.75c.966 0 1.75.784 1.75 1.75v8.5A1.75 1.75 0 0114.25 15H1.75A1.75 1.75 0 010 13.25v-8.5C0 3.784.784 3 1.75 3H5.5V1.75C5.5.784 6.284 0 7.25 0zm3.232 4.5A1.75 1.75 0 018.75 6h-1.5a1.75 1.75 0 01-1.732-1.5H1.75a.25.25 0 00-.25.25v8.5c0 .138.112.25.25.25h12.5a.25.25 0 00.25-.25v-8.5a.25.25 0 00-.25-.25zM7 1.75v2.5c0 .138.112.25.25.25h1.5A.25.25 0 009 4.25v-2.5a.25.25 0 00-.25-.25h-1.5a.25.25 0 00-.25.25z"/></svg>
